!!!OTL: ES HATTEN DREI GESELLEN
!!!ARE: Europa, Mitteleuropa, Deutschland
!!!SCT: B0559
!!!YEM: Copyright 1995, estate of Helmut Schaffrath.
**kern
*ICvox
*Ivox
*M4/4
*k[f#]
*G:
{4d
=1
4.b
8b
8a
8cc
8b
8a
=2
2g
4d}
{8g
8a
=3
4.b
8b
4g
4f#
=4
2e
4r}
{8g
8a
=5
4b
8b
8b
4b
8a
8b
=6
2dd
4cc}
{8b
8b
=7
4a
4a
4a
8g
8a
=8
2b
4r}
{8g
8a
=9
4b
8b
8b
4ee
8ee
8ee
=10
2dd
4cc}
{8b
8cc
=11
4dd
8g
8a
4b
8a
8a
=12
2g
4r}
==
!!!AGN: Studenten -, Trink - Lied
!!!ONB: ESAC (Essen Associative Code) Database: BOEHME
!!!AMT: simple quadruple
!!!AIN: vox
!!!EED: Helmut Schaffrath
!!!EEV: 1.0
*-
